img/icons/ico-social-be.svg

<svg xmlns="http://www.w3.org/2000/svg" width="60" height="38">
    <path fill-rule="evenodd" d="M59.95 25.566H40.665c0 2.146.713 4.176 1.82 5.25 1.106 1.087 2.692 1.631 4.744 1.631 1.485 0 2.766-.382 3.828-1.132 1.063-.75 1.718-1.558 1.965-2.399h6.462c-1.033 3.253-2.619 5.575-4.759 6.972-2.125 1.396-4.716 2.103-7.743 2.103-2.11 0-4.002-.339-5.705-1.029-1.703-.692-3.115-1.648-4.309-2.898-1.164-1.263-2.066-2.749-2.707-4.5-.64-1.735-.96-3.661-.96-5.748 0-2.015.335-3.912.989-5.648.67-1.749 1.587-3.264 2.795-4.529 1.208-1.279 2.649-2.278 4.337-3.015 1.674-.735 3.522-1.101 5.574-1.101 2.256 0 4.236.441 5.939 1.337a11.845 11.845 0 0 1 4.162 3.574c1.092 1.499 1.863 3.206 2.344 5.115.48 1.914.655 3.915.509 6.017zm-9.038-8.928c-.873-.969-2.344-1.497-4.148-1.497-1.179 0-2.14.204-2.926.601-.757.399-1.383.896-1.863 1.485-.48.603-.8 1.235-.989 1.898-.19.661-.306 1.249-.335 1.778H52.6c-.16-1.881-.801-3.278-1.688-4.265zM39.166 2.509h14.962v3.676H39.166V2.509zm-12.284 32.23c-1.222.869-2.62 1.516-4.192 1.943a18.857 18.857 0 0 1-4.817.631H0V.009h17.393c1.761 0 3.362.146 4.817.47 1.441.31 2.678.823 3.726 1.544 1.034.706 1.834 1.661 2.402 2.837.567 1.178.844 2.649.844 4.383 0 1.883-.422 3.441-1.266 4.706-.845 1.25-2.096 2.279-3.77 3.071 2.27.663 3.959 1.825 5.065 3.473 1.121 1.661 1.674 3.646 1.674 5.983 0 1.898-.364 3.515-1.077 4.882-.728 1.385-1.703 2.515-2.926 3.381zM20.857 8.478c-.321-.558-.728-.986-1.252-1.293-.524-.324-1.106-.529-1.79-.662a10.822 10.822 0 0 0-2.096-.192H8.121v8.721h8.224v.014c1.441 0 2.634-.338 3.58-1.044.932-.691 1.383-1.823 1.383-3.398 0-.865-.146-1.586-.451-2.146zm.349 13.425c-1.063-.824-2.489-1.221-4.235-1.221H8.136v10.266h8.66c.8 0 1.557-.075 2.285-.236.728-.162 1.368-.411 1.921-.793.539-.369.99-.854 1.325-1.487.334-.632.48-1.44.48-2.41 0-1.926-.539-3.279-1.601-4.119z"/>
</svg>

<svg xmlns="http://www.w3.org/2000/svg" xmlns:xlink="http://www.w3.org/1999/xlink" preserveAspectRatio="xMidYMid" width="60" height="38" viewBox="0 0 60 38">
  <defs>
    <style>
      .cls-1 {
        fill: #000;
        fill-rule: evenodd;
      }
    </style>
  </defs>
  <path d="M59.950,25.566 L40.665,25.566 C40.665,27.712 41.378,29.742 42.485,30.816 C43.591,31.903 45.177,32.447 47.229,32.447 C48.714,32.447 49.995,32.065 51.057,31.315 C52.120,30.565 52.775,29.757 53.022,28.917 L59.484,28.917 C58.451,32.168 56.864,34.491 54.725,35.888 C52.600,37.284 50.009,37.991 46.982,37.991 C44.871,37.991 42.979,37.653 41.276,36.962 C39.574,36.271 38.162,35.314 36.968,34.065 C35.804,32.802 34.902,31.315 34.261,29.564 C33.621,27.829 33.301,25.903 33.301,23.815 C33.301,21.802 33.635,19.904 34.290,18.168 C34.960,16.418 35.877,14.904 37.085,13.640 C38.293,12.360 39.734,11.361 41.422,10.623 C43.096,9.890 44.944,9.523 46.996,9.523 C49.252,9.523 51.232,9.963 52.935,10.860 C54.623,11.741 56.006,12.934 57.097,14.434 C58.189,15.934 58.960,17.640 59.440,19.549 C59.921,21.463 60.096,23.464 59.950,25.566 ZM50.912,16.638 C50.038,15.669 48.568,15.142 46.764,15.142 C45.585,15.142 44.624,15.345 43.838,15.742 C43.081,16.141 42.455,16.638 41.975,17.227 C41.495,17.830 41.175,18.461 40.986,19.125 C40.796,19.787 40.680,20.375 40.651,20.903 L52.600,20.903 C52.440,19.021 51.799,17.625 50.912,16.638 ZM39.166,2.509 L54.128,2.509 L54.128,6.185 L39.166,6.185 L39.166,2.509 ZM26.882,34.740 C25.660,35.608 24.262,36.255 22.690,36.682 C21.133,37.094 19.518,37.313 17.873,37.313 L0.000,37.313 L0.000,0.010 L17.393,0.010 C19.154,0.010 20.755,0.155 22.210,0.479 C23.651,0.789 24.888,1.302 25.936,2.023 C26.970,2.729 27.770,3.684 28.338,4.860 C28.905,6.039 29.182,7.509 29.182,9.242 C29.182,11.126 28.760,12.683 27.916,13.950 C27.071,15.198 25.820,16.228 24.146,17.021 C26.416,17.683 28.105,18.845 29.211,20.494 C30.332,22.154 30.885,24.139 30.885,26.476 C30.885,28.375 30.521,29.991 29.808,31.358 C29.080,32.742 28.105,33.874 26.882,34.740 ZM20.857,8.479 C20.536,7.921 20.129,7.492 19.605,7.185 C19.081,6.862 18.499,6.656 17.815,6.523 C17.145,6.391 16.447,6.331 15.719,6.331 L8.121,6.331 L8.121,15.052 L16.345,15.052 L16.345,15.066 C17.786,15.066 18.979,14.729 19.925,14.022 C20.857,13.331 21.308,12.199 21.308,10.623 C21.308,9.759 21.162,9.038 20.857,8.479 ZM21.206,21.903 C20.143,21.079 18.717,20.683 16.971,20.683 L8.136,20.683 L8.136,30.948 L16.796,30.948 C17.596,30.948 18.353,30.873 19.081,30.711 C19.809,30.550 20.449,30.301 21.002,29.919 C21.541,29.550 21.992,29.065 22.327,28.433 C22.661,27.800 22.807,26.992 22.807,26.021 C22.807,24.095 22.268,22.742 21.206,21.903 Z" class="cls-1"/>
</svg>
